src/net/sf/gogui/images/gogui-setup-white.svg

<?xml version="1.0" encoding="UTF-8" standalone="no"?>
<!-- Created with Inkscape (http://www.inkscape.org/) -->

<svg
   xmlns:dc="http://purl.org/dc/elements/1.1/"
   xmlns:cc="http://creativecommons.org/ns#"
   xmlns:rdf="http://www.w3.org/1999/02/22-rdf-syntax-ns#"
   xmlns:svg="http://www.w3.org/2000/svg"
   xmlns="http://www.w3.org/2000/svg"
   xmlns:xlink="http://www.w3.org/1999/xlink"
   version="1.0"
   width="22"
   height="22"
   id="svg1910">
  <defs
     id="defs1912">
    <linearGradient
       id="linearGradient2786">
      <stop
         id="stop2788"
         style="stop-color:#ffffff;stop-opacity:1"
         offset="0" />
      <stop
         id="stop2790"
         style="stop-color:#b4bbad;stop-opacity:1"
         offset="1" />
    </linearGradient>
    <linearGradient
       id="linearGradient2780">
      <stop
         id="stop2782"
         style="stop-color:#171716;stop-opacity:1"
         offset="0" />
      <stop
         id="stop2784"
         style="stop-color:#373737;stop-opacity:0"
         offset="1" />
    </linearGradient>
    <radialGradient
       cx="23.716686"
       cy="34.693275"
       r="9.457016"
       fx="23.836168"
       fy="28.83235"
       id="radialGradient3995"
       xlink:href="#linearGradient2786"
       gradientUnits="userSpaceOnUse"
       gradientTransform="matrix(0.952869,-0.209637,0.137367,0.624524,-3.116399,17.89217)" />
    <radialGradient
       cx="24.181818"
       cy="44.180717"
       r="9.5210056"
       fx="24.592691"
       fy="46.159111"
       id="radialGradient3997"
       xlink:href="#linearGradient2780"
       gradientUnits="userSpaceOnUse"
       gradientTransform="matrix(1.3645,-5.486648e-7,5.636687e-7,1.246697,-8.814292,-10.89923)" />
  </defs>
  <metadata
     id="metadata1915">
    <rdf:RDF>
      <cc:Work
         rdf:about="">
        <dc:format>image/svg+xml</dc:format>
        <dc:type
           rdf:resource="http://purl.org/dc/dcmitype/StillImage" />
        <dc:title></dc:title>
      </cc:Work>
    </rdf:RDF>
  </metadata>
  <g
     id="layer1">
    <path
       d="m 34.290648,37.306553 a 12.401417,11.86883 0 1 1 -0.094,-0.124868"
       transform="matrix(0.806405,0,0,0.842589,-10.00035,-27.22714)"
       id="path8507"
       style="fill:url(#radialGradient3997);fill-opacity:1;stroke:none;display:inline" />
    <path
       d="m 33.079155,32.901022 a 9.8943748,9.8943748 0 1 1 -0.075,-0.104095"
       transform="matrix(0.960196,0,0,0.960085,-14.51825,-27.58943)"
       id="path3088"
       style="fill:url(#radialGradient3995);fill-opacity:1;stroke:none;display:inline" />
    <path
       d="m 17.270836,21.570681 0,-4.038258 4.299845,-0.01798 0,-3.129392 -4.295997,0 -0.0038,-4.4557351 -3.023398,0.00499 0.0019,4.442752 -4.3046525,0.03295 -0.015391,3.117412 4.32389,-0.01298 0.0029,4.04425 3.014742,0.01198 z"
       id="text1314"
       style="font-size:59.90107727px;font-style:normal;font-variant:normal;font-weight:bold;font-stretch:normal;text-align:start;line-height:125%;writing-mode:lr-tb;text-anchor:start;fill:#75a1d0;fill-opacity:1;stroke:#3465a4;stroke-width:0.85863793;stroke-linecap:butt;stroke-linejoin:miter;stroke-miterlimit:4;stroke-opacity:1;stroke-dasharray:none;font-family:Bitstream Vera Sans" />
  </g>
</svg>

<?xml version="1.0" encoding="UTF-8" standalone="no"?>
<!-- Created with Inkscape (http://www.inkscape.org/) -->
<svg
   xmlns:dc="http://purl.org/dc/elements/1.1/"
   xmlns:cc="http://web.resource.org/cc/"
   xmlns:rdf="http://www.w3.org/1999/02/22-rdf-syntax-ns#"
   xmlns:svg="http://www.w3.org/2000/svg"
   xmlns="http://www.w3.org/2000/svg"
   xmlns:xlink="http://www.w3.org/1999/xlink"
   xmlns:sodipodi="http://sodipodi.sourceforge.net/DTD/sodipodi-0.dtd"
   xmlns:inkscape="http://www.inkscape.org/namespaces/inkscape"
   width="22"
   height="22"
   id="svg1910"
   sodipodi:version="0.32"
   inkscape:version="0.44.1"
   sodipodi:docbase="/home/markus/gogui/src/net/sf/gogui/images"
   sodipodi:docname="gogui-setup-white.svg"
   inkscape:export-filename="/home/markus/gogui/src/net/sf/gogui/images/gogui-setup-white.png"
   inkscape:export-xdpi="90"
   inkscape:export-ydpi="90"
   version="1.0">
  <defs
     id="defs1912">
    <linearGradient
       id="linearGradient2786"
       inkscape:collect="always">
      <stop
         id="stop2788"
         offset="0"
         style="stop-color:white;stop-opacity:1" />
      <stop
         id="stop2790"
         offset="1"
         style="stop-color:#b4bbad;stop-opacity:1" />
    </linearGradient>
    <linearGradient
       inkscape:collect="always"
       id="linearGradient2780">
      <stop
         style="stop-color:#171716;stop-opacity:1"
         offset="0"
         id="stop2782" />
      <stop
         style="stop-color:#373737;stop-opacity:0"
         offset="1"
         id="stop2784" />
    </linearGradient>
    <linearGradient
       inkscape:collect="always"
       id="linearGradient3979">
      <stop
         style="stop-color:white;stop-opacity:1"
         offset="0"
         id="stop3981" />
      <stop
         style="stop-color:#d3d7cf;stop-opacity:1"
         offset="1"
         id="stop3983" />
    </linearGradient>
    <linearGradient
       id="linearGradient3759"
       inkscape:collect="always">
      <stop
         id="stop3761"
         offset="0"
         style="stop-color:#171716;stop-opacity:1" />
      <stop
         id="stop3763"
         offset="1"
         style="stop-color:#343434;stop-opacity:0.02272727" />
    </linearGradient>
    <radialGradient
       inkscape:collect="always"
       xlink:href="#linearGradient3759"
       id="radialGradient3723"
       cx="24.181818"
       cy="44.180717"
       fx="24.592691"
       fy="46.159111"
       r="9.521006"
       gradientTransform="matrix(1.258895,3.610761e-8,-2.381149e-8,1.246699,-6.260551,-10.89932)"
       gradientUnits="userSpaceOnUse" />
    <linearGradient
       id="linearGradient7916">
      <stop
         style="stop-color:#ffffff;stop-opacity:1;"
         offset="0"
         id="stop7918" />
      <stop
         style="stop-color:#ffffff;stop-opacity:0.34020618;"
         offset="1.0000000"
         id="stop7920" />
    </linearGradient>
    <linearGradient
       id="linearGradient1322">
      <stop
         id="stop1324"
         offset="0.0000000"
         style="stop-color:#729fcf" />
      <stop
         id="stop1326"
         offset="1.0000000"
         style="stop-color:#5187d6;stop-opacity:1.0000000;" />
    </linearGradient>
    <linearGradient
       id="linearGradient9454"
       inkscape:collect="always">
      <stop
         id="stop9456"
         offset="0"
         style="stop-color:#eeeeec;stop-opacity:1" />
      <stop
         id="stop9458"
         offset="1"
         style="stop-color:#555753;stop-opacity:1" />
    </linearGradient>
    <radialGradient
       inkscape:collect="always"
       xlink:href="#linearGradient9454"
       id="radialGradient9462"
       gradientUnits="userSpaceOnUse"
       gradientTransform="matrix(0.952869,-0.209637,0.137367,0.624524,-3.116399,17.89217)"
       cx="23.716686"
       cy="34.693275"
       fx="23.836168"
       fy="28.83235"
       r="9.457016" />
    <radialGradient
       inkscape:collect="always"
       xlink:href="#linearGradient3979"
       id="radialGradient3090"
       gradientUnits="userSpaceOnUse"
       gradientTransform="matrix(0.952869,-0.209637,0.137367,0.624524,-3.116399,17.89217)"
       cx="23.716686"
       cy="34.693275"
       fx="23.836168"
       fy="28.83235"
       r="9.457016" />
    <radialGradient
       inkscape:collect="always"
       xlink:href="#linearGradient3759"
       id="radialGradient3989"
       gradientUnits="userSpaceOnUse"
       gradientTransform="matrix(1.258895,3.610761e-8,-2.381149e-8,1.246699,-6.260551,-10.89932)"
       cx="24.181818"
       cy="44.180717"
       fx="24.592691"
       fy="46.159111"
       r="9.521006" />
    <radialGradient
       inkscape:collect="always"
       xlink:href="#linearGradient3979"
       id="radialGradient3991"
       gradientUnits="userSpaceOnUse"
       gradientTransform="matrix(0.952869,-0.209637,0.137367,0.624524,-3.116399,17.89217)"
       cx="23.716686"
       cy="34.693275"
       fx="23.836168"
       fy="28.83235"
       r="9.457016" />
    <radialGradient
       inkscape:collect="always"
       xlink:href="#linearGradient2786"
       id="radialGradient3995"
       gradientUnits="userSpaceOnUse"
       gradientTransform="matrix(0.952869,-0.209637,0.137367,0.624524,-3.116399,17.89217)"
       cx="23.716686"
       cy="34.693275"
       fx="23.836168"
       fy="28.83235"
       r="9.457016" />
    <radialGradient
       inkscape:collect="always"
       xlink:href="#linearGradient2780"
       id="radialGradient3997"
       gradientUnits="userSpaceOnUse"
       gradientTransform="matrix(1.3645,-5.486648e-7,5.636687e-7,1.246697,-8.814292,-10.89923)"
       cx="24.181818"
       cy="44.180717"
       fx="24.592691"
       fy="46.159111"
       r="9.521006" />
  </defs>
  <sodipodi:namedview
     id="base"
     pagecolor="#ffffff"
     bordercolor="#666666"
     borderopacity="1.0"
     inkscape:pageopacity="0.0"
     inkscape:pageshadow="2"
     inkscape:zoom="18.5"
     inkscape:cx="8.7352284"
     inkscape:cy="8.9970791"
     inkscape:current-layer="layer1"
     showgrid="true"
     inkscape:grid-bbox="true"
     inkscape:document-units="px"
     inkscape:object-bbox="true"
     objecttolerance="10000"
     gridtolerance="10000"
     guidetolerance="10000"
     gridempspacing="2"
     inkscape:window-width="868"
     inkscape:window-height="805"
     inkscape:window-x="116"
     inkscape:window-y="118"
     gridspacingx="0.5px"
     gridspacingy="0.5px"
     width="22px"
     height="22px"
     inkscape:guide-points="true"
     inkscape:grid-points="true" />
  <metadata
     id="metadata1915">
    <rdf:RDF>
      <cc:Work
         rdf:about="">
        <dc:format>image/svg+xml</dc:format>
        <dc:type
           rdf:resource="http://purl.org/dc/dcmitype/StillImage" />
      </cc:Work>
    </rdf:RDF>
  </metadata>
  <g
     id="layer1"
     inkscape:label="Layer 1"
     inkscape:groupmode="layer">
    <path
       sodipodi:type="arc"
       style="fill:url(#radialGradient3997);fill-opacity:1;stroke:none;stroke-linecap:round;stroke-linejoin:round;stroke-opacity:0.49803922;display:inline"
       id="path8507"
       sodipodi:cx="24.181818"
       sodipodi:cy="44.18182"
       sodipodi:rx="12.401417"
       sodipodi:ry="11.86883"
       d="M 34.290648,37.306553 A 12.401417,11.86883 0 1 1 34.196651,37.181685"
       sodipodi:start="5.6653514"
       sodipodi:end="11.93557"
       sodipodi:open="true"
       transform="matrix(0.806405,0,0,0.842589,-10.00035,-27.22714)" />
    <path
       sodipodi:type="arc"
       style="fill:url(#radialGradient3995);fill-opacity:1;stroke:none;stroke-linecap:round;stroke-linejoin:round;stroke-opacity:0.49803922;display:inline"
       id="path3088"
       sodipodi:cx="25.013903"
       sodipodi:cy="38.632545"
       sodipodi:rx="9.8943748"
       sodipodi:ry="9.8943748"
       d="M 33.079155,32.901022 A 9.8943748,9.8943748 0 1 1 33.00416,32.796927"
       sodipodi:start="5.6653514"
       sodipodi:end="11.93557"
       sodipodi:open="true"
       transform="matrix(0.960196,0,0,0.960085,-14.51825,-27.58943)" />
    <path
       style="font-size:59.90107727px;font-style:normal;font-variant:normal;font-weight:bold;font-stretch:normal;text-align:start;line-height:125%;writing-mode:lr-tb;text-anchor:start;fill:#75a1d0;fill-opacity:1;stroke:#3465a4;stroke-width:0.85863793;stroke-linecap:butt;stroke-linejoin:miter;stroke-miterlimit:4;stroke-dasharray:none;stroke-opacity:1;font-family:Bitstream Vera Sans"
       d="M 17.270836,21.570681 L 17.270836,17.532423 L 21.570681,17.514446 L 21.570681,14.385054 L 17.274684,14.385054 L 17.270836,9.9293189 L 14.247438,9.934312 L 14.249362,14.377064 L 9.9447095,14.410018 L 9.929319,17.52743 L 14.253209,17.514446 L 14.256094,21.558696 L 17.270836,21.570681 z "
       id="text1314"
       sodipodi:nodetypes="ccccccccccccc" />
  </g>
</svg>
